X: 1
T: Exponential Curve, The
M: 6/8
L: 1/8
R: jig
K: Dmaj
|: FGA d2 d | cBA BFB | A2 A G2 G | FEF AGE |
D3 dBd | cAc BGB | A2 A G2 F | EDC D3 :|
A,CD E2 F | AcA BGB | A2e d2c | B3 G3 |
ABG Acd| edc B3 | D3 EFG | A3 E3 |  
A,CD E2 F | AcA BGB | A2e d2c | B3 d3 |
g2 g gag | f2 f fef | ege dBG | A3 A3 |
